public/svgs/icons/mentor.svg

<svg fill="none" height="88" viewBox="0 0 111 88" width="111" xmlns="http://www.w3.org/2000/svg"><path d="m105.52 48c4.108-6.5016 5.675-14.2887 4.403-21.8731-1.272-7.5843-5.294-14.434-11.2976-19.23994-6.0036-4.80589-13.5677-7.230922-21.2466-6.8116012-7.6788.4193212-14.9339 3.6535812-20.3785 9.0846412-2.8711 2.8629-5.154 6.2601-6.72 10 .46.21.92.43 1.37.66 1.4871-3.5773 3.6653-6.826 6.41-9.56 5.2092-5.1543 12.1364-8.20615 19.4555-8.57126s14.5157 1.98218 20.212 6.59246c5.6962 4.6103 9.4922 11.1596 10.6602 18.394 1.169 7.2345-.372 14.6457-4.328 20.8148l-.16.26 2.27 10.65-10.6197-2.31-.26.17c-3.6671 2.3558-7.8063 3.8785-12.1258 4.4608-4.3196.5823-8.7142.2099-12.8742-1.0908-.11.5-.24 1-.37 1.47 3.0058.9283 6.134 1.4002 9.28 1.4 5.9052.0122 11.6914-1.6599 16.68-4.82l10.4997 2.24c.196.0435.399.0369.591-.019.193-.056.368-.1596.509-.3012.142-.1415.245-.3166.301-.5088.056-.1923.063-.3955.019-.591z" fill="#ed6a5e"/><path d="m35.85 82.7701c-5.8997.0227-11.6844-1.6316-16.68-4.77l-10.49003 2.2c-.19788.0412-.4029.0327-.59665-.0249s-.37015-.1625-.51335-.3051c-.14237-.1411-.24646-.3161-.30245-.5086-.05599-.1924-.06203-.396-.01755-.5914l2.24-10.49c-4.10673-6.5005-5.67443-14.2863-4.40356-21.8696 1.27087-7.5834 5.29119-14.4326 11.29279-19.2391 6.0017-4.8065 13.5638-7.2333 21.2416-6.8166s14.9329 3.6475 20.3792 9.0753c4.3809 4.3702 7.3649 9.9434 8.5731 16.0123 1.2083 6.0689.5864 12.3599-1.7868 18.0748-2.3731 5.7149-6.3906 10.5959-11.5424 14.0237-5.1519 3.4278-11.2059 5.2479-17.3939 5.2292zm-16.39-6.41.26.17c6.1718 4.0026 13.6067 5.5793 20.872 4.4263 7.2652-1.1531 13.8466-4.9544 18.4758-10.6713s6.9787-12.9449 6.5957-20.2911c-.3829-7.3462-3.4713-14.2906-8.67-19.4952-5.1986-5.2045-12.1396-8.3008-19.4853-8.6921-7.3458-.3914-14.5764 1.9499-20.2986 6.5727-5.7221 4.6227-9.53088 11.1998-10.69221 18.4637s.40694 14.7006 4.40261 20.877l.17.26-2.28003 10.65z" fill="#bad8db"/><g fill="#ed6a5e"><path d="m42.2707 57.2801c-.0986.0005-.1962-.0188-.2872-.0565-.091-.0378-.1736-.0934-.2428-.1635-.1405-.1406-.2194-.3312-.2194-.53 0-.1987.0789-.3894.2194-.53l5-5-5-5.06c-.0737-.0687-.1328-.1515-.1738-.2435s-.0631-.1913-.0648-.292c-.0018-.1007.0167-.2007.0544-.2941.0378-.0934.0939-.1782.1651-.2494.0712-.0713.1561-.1274.2495-.1651s.1934-.0563.2941-.0545.2.0238.292.0648.1748.1001.2435.1738l6.11 6.12-6.11 6.06c-.0693.0701-.1518.1257-.2428.1635-.0911.0377-.1887.057-.2872.0565z"/><path d="m27.5404 57.2799c-.0985.0005-.1962-.0188-.2872-.0565-.091-.0378-.1736-.0934-.2428-.1635l-6.11-6.06 6.1-6.17c.1406-.1405.3312-.2193.53-.2193.1987 0 .3894.0788.53.2193.0707.0689.127.1514.1654.2424s.0582.1888.0582.2876-.0198.1966-.0582.2876-.0947.1734-.1654.2424l-5.06 5.11 5.05 5c.0707.0689.127.1514.1654.2424s.0582.1888.0582.2876-.0198.1966-.0582.2876-.0947.1735-.1654.2424c-.0659.0691-.145.1241-.2326.1619s-.182.0576-.2774.0581z"/><path d="m31.9406 60.9999c-.0764.0088-.1536.0088-.23 0-.1-.03-.1927-.0805-.2721-.1483-.0793-.0678-.1437-.1515-.1889-.2456-.0451-.0942-.0702-.1967-.0734-.3011-.0033-.1043.0152-.2082.0544-.305l5.84-17.87c.0624-.1896.1975-.3467.3756-.4368.0882-.0445.1844-.0713.2829-.0787.0986-.0074.1976.0046.2915.0355s.1808.0799.2558.1444c.0749.0644.1364.143.181.2312.0445.0882.0713.1843.0787.2829.0074.0985-.0046.1976-.0355.2915l-5.84 17.88c-.0516.1504-.1485.2812-.2774.3743-.129.0931-.2836.144-.4426.1457z"/></g></svg>

<svg width="111" height="88" viewBox="0 0 111 88" fill="none" xmlns="http://www.w3.org/2000/svg">
<path d="M105.52 48C109.628 41.4984 111.195 33.7113 109.923 26.1269C108.651 18.5426 104.629 11.6929 98.6254 6.88696C92.6218 2.08107 85.0577 -0.343962 77.3788 0.0753588C69.7 0.49468 62.4449 3.72894 57.0003 9.16C54.1292 12.0229 51.8463 15.4201 50.2803 19.16C50.7403 19.37 51.2003 19.59 51.6503 19.82C53.1374 16.2427 55.3156 12.994 58.0603 10.26C63.2695 5.1057 70.1967 2.05385 77.5158 1.68874C84.8349 1.32363 92.0315 3.67092 97.7278 8.2812C103.424 12.8915 107.22 19.4408 108.388 26.6752C109.557 33.9097 108.016 41.3209 104.06 47.49L103.9 47.75L106.17 58.4L95.5503 56.09L95.2903 56.26C91.6232 58.6158 87.484 60.1385 83.1645 60.7208C78.8449 61.3031 74.4503 60.9307 70.2903 59.63C70.1803 60.13 70.0503 60.63 69.9203 61.1C72.9261 62.0283 76.0543 62.5002 79.2003 62.5C85.1055 62.5122 90.8917 60.8401 95.8803 57.68L106.38 59.92C106.576 59.9635 106.779 59.9569 106.971 59.901C107.164 59.845 107.339 59.7414 107.48 59.5998C107.622 59.4583 107.725 59.2832 107.781 59.091C107.837 58.8987 107.844 58.6955 107.8 58.5L105.52 48Z" fill="#ED6A5E"/>
<path d="M35.85 82.7701C29.9503 82.7928 24.1656 81.1385 19.17 78.0001L8.67997 80.2001C8.48209 80.2413 8.27707 80.2328 8.08332 80.1752C7.88957 80.1176 7.71317 80.0127 7.56997 79.8701C7.4276 79.729 7.32351 79.554 7.26752 79.3615C7.21153 79.1691 7.20549 78.9655 7.24997 78.7701L9.48997 68.2801C5.38324 61.7796 3.81554 53.9938 5.08641 46.4105C6.35728 38.8271 10.3776 31.9779 16.3792 27.1714C22.3809 22.3649 29.943 19.9381 37.6208 20.3548C45.2986 20.7715 52.5537 24.0023 58 29.4301C62.3809 33.8003 65.3649 39.3735 66.5731 45.4424C67.7814 51.5113 67.1595 57.8023 64.7863 63.5172C62.4132 69.2321 58.3957 74.1131 53.2439 77.5409C48.092 80.9687 42.038 82.7888 35.85 82.7701ZM19.46 76.3601L19.72 76.5301C25.8918 80.5327 33.3267 82.1094 40.592 80.9564C47.8572 79.8033 54.4386 76.002 59.0678 70.2851C63.697 64.5682 66.0465 57.3402 65.6635 49.994C65.2806 42.6478 62.1922 35.7034 56.9935 30.4988C51.7949 25.2943 44.8539 22.198 37.5082 21.8067C30.1624 21.4153 22.9318 23.7566 17.2096 28.3794C11.4875 33.0021 7.67872 39.5792 6.51739 46.8431C5.35606 54.107 6.92433 61.5437 10.92 67.7201L11.09 67.9801L8.80997 78.6301L19.46 76.3601Z" fill="#BAD8DB"/>
<path d="M42.2707 57.2801C42.1721 57.2806 42.0745 57.2613 41.9835 57.2236C41.8925 57.1858 41.8099 57.1302 41.7407 57.0601C41.6002 56.9195 41.5213 56.7289 41.5213 56.5301C41.5213 56.3314 41.6002 56.1407 41.7407 56.0001L46.7407 51.0001L41.7407 45.9401C41.667 45.8714 41.6079 45.7886 41.5669 45.6966C41.5259 45.6046 41.5038 45.5053 41.5021 45.4046C41.5003 45.3039 41.5188 45.2039 41.5565 45.1105C41.5943 45.0171 41.6504 44.9323 41.7216 44.8611C41.7928 44.7898 41.8777 44.7337 41.9711 44.696C42.0645 44.6583 42.1645 44.6397 42.2652 44.6415C42.3659 44.6433 42.4652 44.6653 42.5572 44.7063C42.6492 44.7473 42.732 44.8064 42.8007 44.8801L48.9107 51.0001L42.8007 57.0601C42.7314 57.1302 42.6489 57.1858 42.5579 57.2236C42.4668 57.2613 42.3692 57.2806 42.2707 57.2801Z" fill="#ED6A5E"/>
<path d="M27.5404 57.2799C27.4419 57.2804 27.3442 57.2611 27.2532 57.2234C27.1622 57.1856 27.0796 57.13 27.0104 57.0599L20.9004 50.9999L27.0004 44.8299C27.141 44.6894 27.3316 44.6106 27.5304 44.6106C27.7291 44.6106 27.9198 44.6894 28.0604 44.8299C28.1311 44.8988 28.1874 44.9813 28.2258 45.0723C28.2642 45.1633 28.284 45.2611 28.284 45.3599C28.284 45.4587 28.2642 45.5565 28.2258 45.6475C28.1874 45.7385 28.1311 45.8209 28.0604 45.8899L23.0004 50.9999L28.0504 55.9999C28.1211 56.0688 28.1774 56.1513 28.2158 56.2423C28.2542 56.3333 28.274 56.4311 28.274 56.5299C28.274 56.6287 28.2542 56.7265 28.2158 56.8175C28.1774 56.9085 28.1211 56.991 28.0504 57.0599C27.9845 57.129 27.9054 57.184 27.8178 57.2218C27.7302 57.2596 27.6358 57.2794 27.5404 57.2799Z" fill="#ED6A5E"/>
<path d="M31.9406 60.9999C31.8642 61.0087 31.787 61.0087 31.7106 60.9999C31.6106 60.9699 31.5179 60.9194 31.4385 60.8516C31.3592 60.7838 31.2948 60.7001 31.2496 60.606C31.2045 60.5118 31.1794 60.4093 31.1762 60.3049C31.1729 60.2006 31.1914 60.0967 31.2306 59.9999L37.0706 42.1299C37.133 41.9403 37.2681 41.7832 37.4462 41.6931C37.5344 41.6486 37.6306 41.6218 37.7291 41.6144C37.8277 41.607 37.9267 41.619 38.0206 41.6499C38.1145 41.6808 38.2014 41.7298 38.2764 41.7943C38.3513 41.8587 38.4128 41.9373 38.4574 42.0255C38.5019 42.1137 38.5287 42.2098 38.5361 42.3084C38.5435 42.4069 38.5315 42.506 38.5006 42.5999L32.6606 60.4799C32.609 60.6303 32.5121 60.7611 32.3832 60.8542C32.2542 60.9473 32.0996 60.9982 31.9406 60.9999Z" fill="#ED6A5E"/>
</svg>
